X:1
T:Title
%%score { 1 | ( 2 3 ) }
L:1/8
M:3/4
K:D
V:1 treble nm="Grand Piano"
V:2 bass 
V:3 bass 
V:1
 z2 z2[Q:1/4=100] [DF]>[EG] | [FA]2 [DF]2 [Fd]>[GB] | [FA]2 F2 D>E | F3 B AF |[M:2/4] [CE]4 | %5
[M:1/4] [DF]>[EG] |[M:3/4] [FA]2 F2 d>B | [GB]2 [FA]2 F>B | A3 D [B,DE][A,CF] |[M:2/4] [F,D]4 | %10
[M:4/4] [DFA]>[DFA] [Gc]4 .[CGA]2 | [CGB]>[CGA] [DFd]4 .[DFA]2 | %12
 [A,DF]>[A,DG] [A,DA]2- [A,DA][A,DF] [DGB]2- |[M:3/4] [DGB][A,FA] [CE]4- |[M:1/4] [CE]2 | %15
 [A,D]>[A,CE] |[M:4/4] [A,DF]3 [A,EG] [DFA]2 [Fd]2 | [Gd]4 [GB]2 [FA]>[GB] | %18
 [FA]3 [A,DF] [G,CE]3 [A,CF] |[M:3/4][K:bass] [F,D]6 |] %20
V:2
 z2 z2 [D,A,]>[D,A,] | [D,D]2 [D,A,]2 [D,A,]>[D,B,] | [D,D]2 [D,A,D]2 [F,A,]>[E,A,C] | %3
 [D,A,D]3 [G,D] [F,A,D][D,A,D] |[M:2/4] [A,,A,]4 |[M:1/4] [D,A,]>[D,A,] | %6
[M:3/4] [D,D]2 [D,A,D]2 [F,A,D]>[G,B,D] | [D,D]2 [D,D]2 [D,A,D]>[D,G,D] | [D,F,D]3 [B,,F,] G,,A,, | %9
[M:2/4] D,4 |[M:4/4] D,>F, A,4 .A,2 | A,,>A,, D,4 .D,2 | D,>E, F,2- F,D, D,2- |[M:3/4] D,F, A,4 | %14
[M:1/4] A,3/2 z/ | F,>E, |[M:4/4] D,3 D, D,2 [D,=C]2 | [G,B,]4 [G,D]2 [D,D]>[D,D] | %18
 [D,D]3 D, A,,3 A,, |[M:3/4] D,6 |] %20
V:3
 x6 | x6 | x6 | x6 |[M:2/4] x4 |[M:1/4] x2 |[M:3/4] x6 | x6 | x6 |[M:2/4] x4 |[M:4/4] x8 | x8 | %12
 x8 |[M:3/4] x6 |[M:1/4] z G, | x2 |[M:4/4] x8 | x8 | x8 |[M:3/4] x6 |] %20

